library/css/icons/svgs/fi-safety-cone.svg

<svg xmlns="http://www.w3.org/2000/svg" width="100" height="100" viewBox="0 0 100 100"><path fill="#231F20" d="M97.017 82.01v-4.62h-.002l.002-.018c-.01-1.335-1.092-2.407-2.42-2.417v-.003h-7.512l-33.037-57.22-.013.008c-.732-1.503-2.26-2.547-4.044-2.547-1.832 0-3.401 1.096-4.108 2.665l-32.963 57.093h-7.534c-1.347 0-2.44 1.091-2.44 2.438v4.863h.012l-.012.114c0 1.347 1.092 2.439 2.44 2.439h89.21v-.004l.037.003c1.346-.01 2.43-1.111 2.42-2.458l-.036-.336zm-49.504-56.851h4.977l5.748 9.957h-16.473l5.748-9.957zm-11.496 19.913h27.971l5.748 9.957h-39.468l5.749-9.957zm-17.251 29.879l5.748-9.957h50.976l5.748 9.957h-62.472z"/></svg>

<?xml version="1.0" encoding="utf-8"?>
<!-- Generator: Adobe Illustrator 17.0.0, SVG Export Plug-In . SVG Version: 6.00 Build 0)  -->
<!DOCTYPE svg PUBLIC "-//W3C//DTD SVG 1.1//EN" "http://www.w3.org/Graphics/SVG/1.1/DTD/svg11.dtd">
<svg version="1.1" id="Layer_1" xmlns="http://www.w3.org/2000/svg" xmlns:xlink="http://www.w3.org/1999/xlink" x="0px" y="0px"
	 width="100px" height="100px" viewBox="0 0 100 100" enable-background="new 0 0 100 100" xml:space="preserve">
<g>
	<path fill="#231F20" d="M97.017,82.01v-4.62h-0.002l0.002-0.018c-0.01-1.335-1.092-2.407-2.42-2.417v-0.003h-7.512L54.048,17.732
		l-0.013,0.008c-0.732-1.503-2.26-2.547-4.044-2.547c-1.832,0-3.401,1.096-4.108,2.665L12.92,74.951H5.386
		c-1.347,0-2.44,1.091-2.44,2.438v4.863h0.012c-0.002,0.039-0.012,0.075-0.012,0.114c0,1.347,1.092,2.439,2.44,2.439h89.21v-0.004
		c0.013,0,0.024,0.004,0.037,0.003c1.346-0.01,2.43-1.111,2.42-2.458C97.053,82.232,97.033,82.122,97.017,82.01z M47.513,25.159
		h4.977l5.748,9.957H41.765L47.513,25.159z M36.017,45.072h27.971l5.748,9.957H30.268L36.017,45.072z M18.766,74.951l5.748-9.957
		H75.49l5.748,9.957H18.766z"/>
</g>
</svg>
